X:1
T: Colher's Reel
C:
R:Reel
Q: 232
K:D
M:4/4
L:1/8
|:DE FG A4|GE =cE GE cE|DE FG AB AG|EG =cE ED D2|
DE FG A4|GE =cE GE cE|DE FG AB AG|EG =cE ED D2|
d2 dA df ed|=cd ef g2 ge|dA A1/2A1/2A df ed|cA GE E2 D2|
Ad dc df ed|=cd ef g2 fg|af ge df ed|cA GE E2 D2:|
